<?xml version="1.0" encoding="UTF-8"?>
<map version="1.10" tiledversion="1.12.2" orientation="orthogonal" renderorder="right-down" width="48" height="32" tilewidth="256" tileheight="256" infinite="0" nextlayerid="2" nextobjectid="1">
 <tileset firstgid="1" source="EnvironmentGround.tsx"/>
 <layer id="1" name="Ground" width="48" height="32">
  <data encoding="csv">
47,47,47,47,47,47,47,47,47,47,47,47,47,47,47,47,47,47,47,47,47,47,47,47,47,47,47,47,47,47,47,47,47,47,47,47,47,47,47,47,47,47,47,47,47,47,47,47,
47,47,47,47,47,47,47,47,47,47,47,47,47,47,47,47,47,47,47,47,47,47,47,47,47,47,47,47,47,47,47,47,47,47,47,47,47,47,47,47,47,47,47,47,47,47,47,47,
47,47,47,47,47,47,47,47,47,47,47,47,47,47,47,47,47,47,47,47,47,47,47,47,47,47,47,47,47,47,47,47,47,47,47,47,47,47,47,47,47,47,47,47,47,47,47,47,
47,47,47,47,47,47,47,47,47,47,47,47,47,47,47,47,47,47,47,47,47,47,47,47,47,47,47,47,47,47,47,47,47,47,47,47,47,47,47,47,47,47,47,47,47,47,47,47,
47,47,47,47,47,47,47,47,47,47,536870922,1073741825,1073741825,2147483658,47,47,47,47,47,47,47,47,47,47,47,47,47,47,47,47,47,47,47,47,47,47,47,47,47,10,3221225473,3221225473,2684354570,47,47,47,47,47,
47,47,47,47,47,47,47,536870922,1073741825,1073741825,2684354562,14,14,536870914,1073741825,2147483658,47,47,47,47,47,47,47,47,47,47,47,47,47,47,47,47,47,47,47,47,3221225491,3221225473,3221225473,2684354562,14,14,3221225474,2684354570,47,47,47,47,
47,47,47,47,47,47,536870922,2684354562,14,14,14,14,14,14,14,536870914,2147483658,47,47,47,47,47,47,47,47,47,47,47,47,47,47,47,47,47,47,10,2684354562,14,14,14,14,14,14,3221225474,2684354570,47,47,47,
47,47,47,47,47,47,2684354561,14,14,14,14,14,14,14,14,14,536870913,47,47,47,47,47,47,47,47,47,47,47,47,47,47,47,47,47,10,2684354562,14,14,14,14,14,14,14,14,3221225474,1610612755,47,47,
47,47,47,47,47,47,2684354561,14,14,14,14,14,14,14,14,14,536870913,47,47,47,47,47,47,47,47,47,47,47,47,47,47,47,47,47,2684354561,14,14,14,14,14,14,14,14,14,14,1610612737,47,47,
47,47,47,47,47,47,1073741834,2,14,14,14,14,14,14,14,14,536870913,47,47,47,47,47,47,47,47,47,47,47,47,47,47,47,47,47,1610612746,2,14,14,14,14,14,14,14,14,14,1610612737,47,47,
47,47,47,47,47,47,47,1073741834,2,14,14,14,14,14,14,1610612738,3221225482,47,47,47,47,47,47,47,47,47,47,47,47,47,47,47,47,47,47,1610612746,2,14,14,14,14,14,14,14,1610612738,19,47,47,
47,47,47,47,47,47,47,47,1073741834,1,1,2,14,1610612738,1,3758096394,47,47,47,47,47,47,47,47,47,47,47,47,47,47,47,47,47,47,47,47,1610612746,2,14,14,14,14,14,1610612738,3221225482,47,47,47,
47,47,47,47,47,47,47,47,47,47,47,2684354561,14,1610612737,47,47,47,47,47,47,47,47,47,47,47,47,47,47,47,47,47,47,47,47,47,47,47,2684354579,1,3221225478,14,2684354566,1,19,47,47,47,47,
47,47,47,47,47,47,47,47,47,47,47,2684354561,14,1610612737,47,47,47,47,47,47,47,47,47,47,47,47,47,47,47,47,47,47,47,47,47,47,47,47,47,5,14,3,47,47,47,47,47,47,
47,47,47,47,47,47,47,47,47,47,47,2684354561,14,1610612737,47,47,47,47,47,47,47,47,47,47,47,47,47,47,47,47,47,47,47,47,47,47,47,47,47,5,14,3,47,47,47,47,47,47,
47,47,47,47,47,47,47,47,47,47,47,2684354561,14,1610612737,47,47,47,47,47,47,47,47,47,47,47,47,47,47,47,47,47,47,47,47,47,47,47,47,47,5,14,3,47,47,47,47,47,47,
47,47,47,47,47,47,47,47,47,47,47,2684354561,14,1610612737,47,47,47,47,47,47,47,47,47,47,47,47,47,47,47,47,47,47,47,47,47,47,47,47,47,5,14,3,47,47,47,47,47,47,
47,47,47,47,47,47,47,47,47,47,47,2684354561,14,1610612737,47,47,47,47,47,47,47,47,47,47,47,47,47,47,47,47,47,47,47,47,47,47,47,47,47,5,14,3,47,47,47,47,47,47,
47,47,47,47,47,47,47,47,47,47,47,2684354561,14,1610612737,47,47,47,47,47,47,47,47,47,47,20,7,7,7,22,47,47,47,47,47,47,47,47,47,47,5,14,3,47,47,47,47,47,47,
47,47,47,47,47,47,47,47,47,47,47,2684354561,14,1610612737,47,47,47,47,47,47,47,47,20,7,9,14,14,14,6,7,22,47,47,47,47,47,47,47,47,5,14,3,47,47,47,47,47,47,
47,47,47,47,47,47,47,47,47,47,47,2684354561,14,1610612737,47,47,47,47,47,47,20,7,9,14,14,14,14,14,14,14,6,7,22,47,47,47,47,47,47,5,14,3,47,47,47,47,47,47,
47,47,47,47,47,47,47,47,47,47,47,2684354561,14,3221225474,7,7,7,7,7,7,9,14,14,14,14,14,14,14,14,14,14,14,6,7,7,7,7,7,7,9,14,3,47,47,47,47,47,47,
47,47,47,47,47,47,47,47,47,47,47,2684354561,14,14,14,14,14,14,14,14,14,14,14,14,14,14,14,14,14,14,14,14,14,14,14,14,14,14,14,14,14,3,47,47,47,47,47,47,
47,47,47,47,47,47,47,47,47,47,47,1610612746,1,1,1,1,1,1,1,1,2,14,14,14,14,14,14,14,14,14,14,14,1610612738,1,1,1,1,1,1,1,1,19,47,47,47,47,47,47,
47,47,47,47,47,47,47,47,47,47,47,47,47,47,47,47,47,47,47,47,17,2,14,14,14,14,14,14,14,14,1610612738,1,19,47,47,47,47,47,47,47,47,47,47,47,47,47,47,47,
47,47,47,47,47,47,47,47,47,47,47,47,47,47,47,47,47,47,47,47,47,17,1,2,14,14,14,14,14,1610612738,29,47,47,47,47,47,47,47,47,47,47,47,47,47,47,47,47,47,
47,47,47,47,47,47,47,47,47,47,47,47,47,47,47,47,47,47,47,47,47,47,47,17,1,1,1,1,1,29,47,47,47,47,47,47,47,47,47,47,47,47,47,47,47,47,47,47,
47,47,47,47,47,47,47,47,47,47,47,47,47,47,47,47,47,47,47,47,47,47,47,47,47,47,47,47,47,47,47,47,47,47,47,47,47,47,47,47,47,47,47,47,47,47,47,47,
47,47,47,47,47,47,47,47,47,47,47,47,47,47,47,47,47,47,47,47,47,47,47,47,47,47,47,47,47,47,47,47,47,47,47,47,47,47,47,47,47,47,47,47,47,47,47,47,
47,47,47,47,47,47,47,47,47,47,47,47,47,47,47,47,47,47,47,47,47,47,47,47,47,47,47,47,47,47,47,47,47,47,47,47,47,47,47,47,47,47,47,47,47,47,47,47,
47,47,47,47,47,47,47,47,47,47,47,47,47,47,47,47,47,47,47,47,47,47,47,47,47,47,47,47,47,47,47,47,47,47,47,47,47,47,47,47,47,47,47,47,47,47,47,47,
47,47,47,47,47,47,47,47,47,47,47,47,47,47,47,47,47,47,47,47,47,47,47,47,47,47,47,47,47,47,47,47,47,47,47,47,47,47,47,47,47,47,47,47,47,47,47,47
</data>
 </layer>
</map>
